X:11
T: Der verkleidete Markgrafensohn
N: Q0006C
O: Mitteleuropa, Deutschland / Frankreich, Lothringen, Forbach
R: Ballade, Braut - Werbung
M: 6/8
L: 1/8
K: G
D | GGGGAB | BABG2
D | cBABAG | F2AG2
A | AAAABc | BABG2
G | cBABAG | F2AG2

